#EX-VRC7
@OT1 = {
;TL FB
 04 06
;AR DR SL RR KL ML AM PM EG KR WF
  8 13  4  2  0  3  0  0  0  0  0
 15  2  1  7  0  1  0  0  1  0  0
};

G q8o4v12t150
G @@0 OP1 c1r4 @@1 c1 r4
G <<@@0 OP1 c1r4 @@1 c1 r4>>
G >>@@0 OP1 c1r4 @@1 c1 r4<<
