#EX-VRC7
@OT2 = {
;TL FB
 05 06
;AR DR SL RR KL ML AM PM EG KR WF
  9  9  6  3  0  3  0  0  0  1  1
  9  6  1  2  0  1  0  1  0  0  0
};

G q8o4v12t150
G @@0 OP2 c1r4 @@2 c1 r4
G <<@@0 OP2 c1r4 @@2 c1 r4>>
G >>@@0 OP2 c1r4 @@2 c1 r4<<
