#EX-VRC7
@OT3 = {
;TL FB
 16 02
;AR DR SL RR KL ML AM PM EG KR WF
 15  0  3  2  0  1  0  0  1  1  1
  9 12  0  2  0  1  0  0  0  1  0
};

G q8o4v12t150
G @@0 OP3 c1r4 @@3 c1 r4
G <<@@0 OP3 c1r4 @@3 c1 r4>>
G >>@@0 OP3 c1r4 @@3 c1 r4<<
