#EX-VRC7
@OT4 = {
;TL FB
 29 07
;AR DR SL RR KL ML AM PM EG KR WF
  9 15  2  0  0  1  0  0  1  0  0
  6  4  2  7  0  1  0  1  1  0  0
};

G q8o4v12t150
G @@0 OP4 c1r4 @@4 c1 r4
G <<@@0 OP4 c1r4 @@4 c1 r4>>
G >>@@0 OP4 c1r4 @@4 c1 r4<<
