#EX-VRC7
@OT5 = {
;TL FB
 30 06
;AR DR SL RR KL ML AM PM EG KR WF
 15  0  0  8  0  2  0  0  1  0  0
  7  6  2  8  0  1  0  0  1  0  0
};

G q8o4v12t150
G @@0 OP5 c1r4 @@5 c1 r4
G <<@@0 OP5 c1r4 @@5 c1 r4>>
G >>@@0 OP5 c1r4 @@5 c1 r4<<
