#EX-VRC7
@OT6 = {
;TL FB
 06 00
;AR DR SL RR KL ML AM PM EG KR WF
 15  0  0  3  0  2  0  0  0  0  0
 15  2  9  5  0  1  0  0  0  0  0
};

G q8o4v12t150
G @@0 OP6 c1r4 @@6 c1 r4
G <<@@0 OP6 c1r4 @@6 c1 r4>>
G >>@@0 OP6 c1r4 @@6 c1 r4<<
