#EX-VRC7
@OT8 = {
;TL FB
 26 07
;AR DR SL RR KL ML AM PM EG KR WF
 14 15  2  5  0  3  0  0  1  0  0
  8  2  1  5  0  1  0  0  1  0  1
};

G q8o4v12t150
G @@0 OP8 c1r4 @@8 c1 r4
G <<@@0 OP8 c1r4 @@8 c1 r4>>
G >>@@0 OP8 c1r4 @@8 c1 r4<<
