#EX-VRC7
@OT9 = {
;TL FB
 37 00
;AR DR SL RR KL ML AM PM EG KR WF
  4  6  0  0  0  5  0  0  1  1  0
  7  1  1  1  0  1  0  0  0  1  0
};

G q8o4v12t150
G @@0 OP9 c1r4 @@9 c1 r4
G <<@@0 OP9 c1r4 @@9 c1 r4>>
G >>@@0 OP9 c1r4 @@9 c1 r4<<
