#EX-VRC7
@OT10 = {
;TL FB
 31 07
;AR DR SL RR KL ML AM PM EG KR WF
 14  4  1  1  0  5  1  0  0  0  1
 10  2  1  2  0  1  0  0  0  0  0
};

G q8o4v12t150
G @@0 OP10 c1r4 @@10 c1 r4
G <<@@0 OP10 c1r4 @@10 c1 r4>>
G >>@@0 OP10 c1r4 @@10 c1 r4<<
