#EX-VRC7
@OT12 = {
;TL FB
 17 06
;AR DR SL RR KL ML AM PM EG KR WF
  9  6  1  3  0  1  0  1  1  0  0
  9  6  1  6  0  3  0  0  1  0  0
};

G q8o4v12t150
G @@0 OP12 c1r4 @@12 c1 r4
G <<@@0 OP12 c1r4 @@12 c1 r4>>
G >>@@0 OP12 c1r4 @@12 c1 r4<<
