#EX-VRC7
@OT13 = {
;TL FB
 19 05
;AR DR SL RR KL ML AM PM EG KR WF
  8  2  3  1  3  1  0  0  0  0  0
 10  2  5  1  0  2  0  0  0  0  0
};

G q8o4v12t150
G @@0 OP13 c1r4 @@13 c1 r4
G <<@@0 OP13 c1r4 @@13 c1 r4>>
G >>@@0 OP13 c1r4 @@13 c1 r4<<
