#EX-VRC7
@OT14 = {
;TL FB
 12 00
;AR DR SL RR KL ML AM PM EG KR WF
  8  4  3  4  0  1  0  1  1  0  0
  8 15  0  6  0  3  0  1  1  0  0
};

G q8o4v12t150
G @@0 OP14 c1r4 @@14 c1 r4
G <<@@0 OP14 c1r4 @@14 c1 r4>>
G >>@@0 OP14 c1r4 @@14 c1 r4<<
